resources/svg/minor-gift-card.svg

<svg xmlns="http://www.w3.org/2000/svg" viewBox="0 0 20 20" fill="currentColor"><path fill-rule="evenodd" d="M5 5c0 .35.06.687.17 1h-.67a1.5 1.5 0 0 0-1.5 1.5v1.5h14v-1.5a1.5 1.5 0 0 0-1.34-1.492 3.5 3.5 0 0 0-6.022-3.523 3 3 0 0 0-4.638 2.515zm7.5 1a1.5 1.5 0 1 0-1.5-1.5v1.5h1.5zm-3.5-1v1h-1a1 1 0 1 1 1-1z"/><path d="M4 11h5v6h-3.5a1.5 1.5 0 0 1-1.5-1.5v-4.5zm12 0h-5v6h3.5a1.5 1.5 0 0 0 1.5-1.5v-4.5z"/></svg>

<svg xmlns="http://www.w3.org/2000/svg" viewBox="0 0 20 20" fill="currentColor"><path fill-rule="evenodd" d="M5 5c0 .35.06.687.17 1H4.5A1.5 1.5 0 0 0 3 7.5V9h14V7.5a1.5 1.5 0 0 0-1.34-1.492 3.5 3.5 0 0 0-6.022-3.523A3 3 0 0 0 5 5zm7.5 1A1.5 1.5 0 1 0 11 4.5V6h1.5zM9 5v1H8a1 1 0 1 1 1-1z"/><path d="M4 11h5v6H5.5A1.5 1.5 0 0 1 4 15.5V11zm12 0h-5v6h3.5a1.5 1.5 0 0 0 1.5-1.5V11z"/></svg>
